!!!OTL: Die Rabenmutter Es huetet ein Schaefer an jenem Rain,
!!!ARE: Europa, Mitteleuropa, Deutschland (BRD), Hessen, Nassau
!!!YOR: 5, S. 269
!!    1894 gedruckt in Berlin
!!!SCT: Q0114R
!!!YEM: Copyright 1995, estate of Helmut Schaffrath.
**kern
*ICvox
*Ivox
*M4/4
*k[f#]
*G:
{4d
=1
4g
8g
8g
4g
8a
8cc
=2
4.b
8a
4g}
{8g
8a
=3
4b
8b
8b
4b
8cc
8ee
=4
4.dd
8cc
4b}
{4dd
=5
4cc
8cc
8b
4a
8g
8a
=6
2b
2a
=7
2g
4r}
==
!!!AGN: Ballade, Kinds - Mord, Strafe
!!!ONB: ESAC (Essen Associative Code) Database: BALLADE
!!!AMT: simple quadruple
!!!AIN: vox
!!!EED: Helmut Schaffrath
!!!EEV: 1.0
*-
